X: 37451
T: Sliabh Na mBan
R: waltz
M: 3/4
K: Gmajor
DF|:G4 cA|B4 AF|G4 Bd|g4 a2|(3gfe f2 {c}d2|AB c2 Bc|
d3 e dc|AB G4|1 Bd c3 B|A4 DE/F/:|2 cB A G2 F|G4 A/B/d||
g2 B2 de|fe e2 d2|ca B4-|B4 AF|G3 A Bd|g2 B2 de|
f2 fe f2|fe d4|z2 D2 EF|G4 cA|B4 AF|G4 Bd|
g4 a2|ge f2 d2|AB c2 Bc|d3 e dc|AB G4|GFG2||

